assets/features/channel/southeast-asia/OCBC.svg

<svg width="80" height="80" viewBox="0 0 80 80" fill="none" xmlns="http://www.w3.org/2000/svg">
<rect width="80" height="80" rx="8" fill="#E30513"/>
<path d="M31.1181 22.3818C33.8181 20.8264 36.909 19.9351 40.2 19.9351C50.6909 19.9351 59.2 28.9215 59.2 39.9998C59.2 51.0782 50.6909 60.0646 40.2 60.0646C33.9 60.0646 28.309 56.8175 24.8545 51.824L34.8454 51.8513C41.1818 51.8513 44.8818 49.6502 45.0909 49.5229C48.3727 47.7583 50.6272 44.1565 50.6272 39.9998C50.6272 34.1059 46.1 29.3217 40.5181 29.3217C39.3727 29.3217 38.2727 29.5218 37.2454 29.8947L34.7 26.8295L31.1181 22.3818Z" fill="white"/>
<path d="M32.8363 33.0599L25.2 27.6936C26.3 26.2019 27.5909 24.883 29.0454 23.7643L35.6545 30.6314C34.5818 31.259 33.6272 32.0867 32.8363 33.0599Z" fill="white"/>
<path d="M41.5727 42.5648L32.209 38.7537C32.4818 37.4076 32.9727 36.3161 33.5999 35.443L41.5727 40.2272V42.5648Z" fill="white"/>
<path d="M41.5727 39.1994L34.609 34.306C35.5 33.4965 36.5272 32.9508 37.5454 32.5961L41.5727 36.7709V39.1994Z" fill="white"/>
<path d="M41.5727 43.5562V46.2485H22.1454C21.5363 44.2747 21.2 42.1828 21.2 39.9998C21.2 38.9266 21.2818 37.8806 21.4363 36.8619L30.3636 39.827C30.3818 43.5289 32.5636 45.921 32.5636 45.921C32.0727 43.7563 31.909 41.919 32 40.3727L41.5727 43.5562Z" fill="white"/>
<path d="M30.4363 38.0716L21.9454 34.4606C22.4181 32.7234 23.109 31.068 23.9818 29.5581L31.7454 34.4243C31.1 35.5157 30.6454 36.7436 30.4363 38.0716Z" fill="white"/>
<path d="M22.5818 47.4673H30.2636L31.2545 48.5769H39.509L37.7545 50.5234H24.0363C23.4727 49.5592 22.9818 48.5314 22.5818 47.4673Z" fill="white"/>
</svg>

<svg xmlns="http://www.w3.org/2000/svg" width="80" height="80" fill="none" viewBox="0 0 80 80"><rect width="80" height="80" fill="#e30513" rx="8"/><path fill="#fff" d="M31.118 22.382a18.1 18.1 0 0 1 9.082-2.447c10.49 0 19 8.987 19 20.065s-8.51 20.065-19 20.065c-6.3 0-11.891-3.247-15.346-8.241l9.991.027c6.337 0 10.037-2.2 10.246-2.328 3.282-1.765 5.536-5.367 5.536-9.523 0-5.894-4.527-10.678-10.109-10.678-1.145 0-2.245.2-3.273.573L34.7 26.83z"/><path fill="#fff" d="M32.836 33.06 25.2 27.694a19.7 19.7 0 0 1 3.845-3.93l6.61 6.867a10.4 10.4 0 0 0-2.819 2.429m8.737 9.505-9.364-3.811c.273-1.346.764-2.438 1.39-3.311l7.974 4.784zm0-3.365-6.964-4.894c.891-.81 1.918-1.355 2.936-1.71l4.028 4.175zm0 4.356v2.693H22.145a21.1 21.1 0 0 1-.709-9.387l8.928 2.965c.018 3.702 2.2 6.094 2.2 6.094-.491-2.165-.655-4.002-.564-5.548zm-11.137-5.484-8.49-3.611a20.7 20.7 0 0 1 2.036-4.903l7.763 4.866a10.3 10.3 0 0 0-1.309 3.648m-7.854 9.395h7.682l.99 1.11h8.255l-1.755 1.946H24.037a20 20 0 0 1-1.454-3.056"/></svg>
